assets/Left arrow/Flat/left_arrow_flat.svg

<svg width="32" height="32" viewBox="0 0 32 32" fill="none" xmlns="http://www.w3.org/2000/svg">
<path d="M2 6C2 3.79086 3.79086 2 6 2H26C28.2091 2 30 3.79086 30 6V26C30 28.2091 28.2091 30 26 30H6C3.79086 30 2 28.2091 2 26V6Z" fill="#00A6ED"/>
<path d="M7.41724 15.5567C7.04468 15.9439 7.04468 16.5563 7.41724 16.9435L12.5295 22.2562C13.1536 22.9049 14.25 22.4631 14.25 21.5629V18.5001C14.25 18.362 14.362 18.2501 14.5 18.2501L24.25 18.2501C24.8023 18.2501 25.25 17.8024 25.25 17.2501V15.2501C25.25 14.6978 24.8023 14.2501 24.25 14.2501L14.5 14.2501C14.362 14.2501 14.25 14.1382 14.25 14.0001L14.25 10.9373C14.25 10.0371 13.1536 9.59527 12.5295 10.2439L7.41724 15.5567Z" fill="white"/>
</svg>

<svg xmlns="http://www.w3.org/2000/svg" width="32" height="32" fill="none"><path fill="#00A6ED" d="M2 6a4 4 0 0 1 4-4h20a4 4 0 0 1 4 4v20a4 4 0 0 1-4 4H6a4 4 0 0 1-4-4V6Z"/><path fill="#fff" d="M7.417 15.557a1 1 0 0 0 0 1.386l5.113 5.313c.624.649 1.72.207 1.72-.693V18.5a.25.25 0 0 1 .25-.25h9.75a1 1 0 0 0 1-1v-2a1 1 0 0 0-1-1H14.5a.25.25 0 0 1-.25-.25v-3.063c0-.9-1.096-1.342-1.72-.693l-5.113 5.313Z"/></svg>
